X:1
T:De bien aymer
T:Nicolas Renés
T:Source : Premier livre contenant 31 chansons eslevées à 4 parties---Paris---P.Attaignant---1535. Editor: André Vierendeels (01/01/18).
T:De bien aymer
T:©
T:©
T:©
T:©
C:Nicolas Renés
Z:©
%%score [ 1 2 3 4 ]
L:1/8
Q:1/4=120
M:2/2
K:C
V:1 treble nm="Alto" snm="A"
V:2 treble-8 nm="Tenor 1" snm="T 1"
V:3 treble-8 nm="Tenor 2" snm="T 2"
V:4 bass nm="Bass" snm="B"
V:1
 z4 z2 A2 | A2 A2 G2 A2 | F2 E2 z2 A2- | A2 G2 F2 E2 | F4 E4 | z2 E2 F2 F2 | EDEF G4 | %7
w: De|bien ay- mer les|da- mes, ie|_ ne blas- *|* me,|quant on iou-|ist _ _ _ _|
 F2 E3 D D2- | D2 C2 D4 | z2 D2 F3 G | AB c4 BA | G2 G2 AGAB | c2 B3 A A2- | A2 G2 A4- | A4 z2 A2 | %15
w: ou bien qu'on y|_ pre- tend,|mais au _|_ _ re- * *|bours cest ung _ _ _|mal trop in- fa-|* * me,|_ des-|
 A4 F4 | D2 D2 G2 G2 | G2 G2 F4 | E4 z2 G2 | A2 A2 c3 B | A2 G3 F F2- | F2 E2 F4 | z2 F2 G2 G2 | %23
w: tre'a- mou-|reux quant on n'est|ay- mé d'a-|me, et|sans ve- nir au|poinct que l'on pre-|* * tend,|si en deux|
 A4 z2 A2 | c2 c2 B2 A2- | AG G4 F2 | G4 z4 | A4 A2 A2 | E3 F G2 G2 | D3 E FG A2- | A2 G2 F2 E2- | %31
w: motz rai-|son el- le n'en-||tent,|re- ti- rez|vous, re- ti- rez|vous, dic- tes a- dieu|_ ma- * *|
 ED D4 C2 | D4 z2 A2 | A2 A2 F3 G | A2 A2 D3 E | FG A4 G2 | F2 E3 D D2- | D2 C2 D4- | D8 |] %39
w: * * da- *|me, re-|ti- rez vous, re-|ti- rez vous, dic-|tes a- dieu, ma|da- * * *|* * me|_|
V:2
 z8 | z8 | z2 e2 e2 e2 | d2 e2 c2 AB | c2 d2 c2 B2 | c2 c2 d2 B2 | c2 c2 B2 c2 | d2 c2 B4 | A8- | %9
w: ||De bien ay-|mr les da _ _|_ ie ne blas-|me, quant on iou-|ist ou bien qu'on|y _ pre-|tend,|
 A4 z4 | z2 A2 c3 d | e2 d2 f2 f2 | e2 e2 c3 d | e4 z2 e2 | e4 c4 | A2 A2 d2 d2 | d3 c B2 d2- | %17
w: _|mais au re-|bours, cest ung mal|trop in- fa- *|me, des-|tre'a- mou-|reux quant on n'est|ay- * * mé|
 d2 c2 d3 c | A2 e2 f2 e2 | c2 f2 e2 c2 | f2 e2 d4 | c4 z2 c2 | d2 d2 e4 | z2 f2 f2 f2 | %24
w: _ d'a- * *|me, et sans ve-|nir au poinct que|l'on _ pre-|tend, si|en deux motz,|rai- son el-|
 e2 f2 g2 f2 | e4 d4 | B8 | A3 B c4 | z2 e2 e2 e2 | B3 c d2 d2 | c2 e2 d2 c2 | B4 A4 | A2 F3 G AB | %33
w: le n'en- tent- *||tent,|re- ti- rez,|re- ti- rez|vous, dic- tes a-|dieu ma- * *|da- *|me, re- ti- rez _|
 c4 z2 e2 | e2 e2 B3 c | d2 d2 c2 e2 | d2 c2 B4 | A4 A4- | A8 |] %39
w: vous, re-|ti- rez vous, dic-|tes a- dieu ma-|da- * *|* me/|_|
V:3
 z2 d2 d2 d2 | c2 d2 B2 A2 | c4 B2 c2 | A2 B2 c3 B | AG A4 G2 | A4 z2 F2 | G2 A4 G2 | A2 A2 G3 D | %8
w: De bien ay-|mer les da- mes,|ie ne blas-|||me, quant|on iou- ist|ou bien qu'on y|
 F2 E2 D2 D2 | F3 G A2 d2 | c2 c2 FGAB | c2 B3 A A2- | A2 G2 A4 | B4 A4- | A4 z4 | z2 d2 d4 | %16
w: pre- * tend, mais|au re- bours cest|ung mal trop _ _ _|_ _ _ _|* in- fa-|* me,|_|des- tre'a-|
 B4 G4 | z2 G2 A3 B | c2 c2 B4 | A2 d2 c2 A2 | c3 B A2 B2 | G2 G2 F4 | z2 A2 c2 c2 | c4 z2 c2 | %24
w: mou- reux|quant on n'est|ay- mé d'a-|me, et ve- nir|au _ _ poinct|qu'on pre- tend,|si en deux|motz, rai-|
 c4 d4 | B2 c2 A4 | G4 d4 | d2 d2 A3 B | c2 c2 G4 | z2 G2 A2 FG | ABcB AG A2 | F2 G2 E4 | %32
w: son el-|le n'en- *|tent, re-|ti- rez vous, re-|ti- rez vous,|dic- tes a- *|dieu _ _ _ _ _ _|_ ma- da-|
 D2 d2 d2 d2 | A3 B c2 c2 | G4 z2 G2 | A2 FG ABcB | AG A2 F2 G2 | E4 D4- | D8 |] %39
w: me, re- ti- rez|vous, re- ti- rez|vous, dic-|tes a- * dieu _ _ _|_ _ _ _ ma-|da- me.|_|
V:4
 z8 | z4 z2 A,2 | A,2 A,2 G,2 A,2 | F,2 E,2 A,3 G, | F,2 D,2 E,4 | A,,4 z2 D,2 | C,2 A,,2 E,2 E,2 | %7
w: |De|bien ay- mer les|da- mes, je ne|blas- * *|me, quant|on iou- ist ou|
 D,2 A,,2 B,,2 G,,2 | A,,4 D,4- | D,4 z2 D,2 | F,3 G, A,2 F,2 | E,2 G,2 F,2 D,2 | E,4 F,4 | %13
w: bien qu'on y pre-|* tend,|_ mais|au re- bours, cest|ung mal trop in-|fa- *|
 E,4 A,,4 | z2 A,2 A,4 | F,4 D,2 D,2 | G,2 G,2 G,3 F, | E,4 D,4 | z2 C,2 D,2 E,2 | %19
w: * me,|d'es- tre'a-|mou- reux quant|on n'est ay- m'|d'a- me,|et ve- nir|
 F,2 D,2 E,2 F,2- | F,2 C,2 D,2 B,,2 | C,4 F,4 | z2 D,2 C,2 C,2 | F,4 z2 F,2 | A,2 A,2 G,2 D,2 | %25
w: au poinct que l'on|_ pre- * *|* tend,|si en deux|motz, rai-|son el- le n'en-|
 E,2 C,2 D,4 | z2 G,2 G,2 G,2 | D,4 z2 A,2 | A,2 A,2 E,3 F, | G,2 G,2 D,3 E, | F,2 C,2 D,2 A,,2 | %31
w: * * tent,|re- ti- rez|vous, re-|ti- rez vous, re-|ti- rez vous, dic-|tes a- dieu ma-|
 B,,2 G,,2 A,,4 | D,8 | z2 A,2 A,2 A,2 | E,3 F, G,2 G,2 | D,3 E, F,2 C,2 | D,2 A,,2 B,,2 G,,2 | %37
w: da- * *|me,|re- ti- rez|vous, re- ti- rez|vous dic- tes a-|dieu ma- da- *|
 A,,4 D,4- | D,8 |] %39
w: * me.|_|

